X: 36362
T: Sean McGlynn's
R: mazurka
M: 3/4
K: Dmajor
|:(3EFG|A>B A>F D>F|(3ABA F>A d2|A>B A>F D>F|E2 E2 F>G|
A2 A>F (3DEF|A2 (3FGA d>B|A>F D>F (3GFE|D2 D2:|
|:(3^ga=g|f>d A>d f>a|g2- g>^g a>=g|(3fdA F>d g>f|e2- e>A a>g|
f>d A>F D>=c|B2- B>D (3GBd|(3fga A>c e>c|d2 d2:|
|:(3abc'|d'>f a>d f>a|g2- g>^g a>=g|(3fAf a>d' a>f|e2- e>a b>c'|
d'>f a2 f>A|(3GBg b>d' c'>b|(3a^ga A>=g e>c|d2 d2:|
|:(3BAG|F>D F>G A2|A>d c2 (3def|g>e c2 (3cde|d>f A2 (3dc=c|
B>A G>A B2|A>G F>A d2|f>d B2 (3gec|d2 d2:|

